src/main/resources/META-INF/pluginIcon.svg

<?xml version="1.0" encoding="UTF-8"?>
<svg width="208px" height="205px" viewBox="0 0 208 205" version="1.1" xmlns="http://www.w3.org/2000/svg">
    <title>Truffle</title>
    <g id="Page-1" stroke="none" stroke-width="1" fill="none" fill-rule="evenodd">
        <g id="truffle-logo-dark" transform="translate(0.281722, 0.000000)">
            <ellipse id="Oval" fill="#5E464D" cx="103.168278" cy="102.14" rx="100.96" ry="102.14"/>
            <path d="M71.4182779,192.71 C75.5482779,194.12 89.4182779,198.63 90.0082779,194.22 C90.3282779,191.8 83.0082779,189.32 73.0982779,184.07 C59.0036394,176.620826 46.1094422,167.09429 34.8482779,155.81 C18.4111818,139.692985 8.9596544,117.766303 8.52827786,94.75 C7.68827786,63.85 19.7682779,38.87 39.6382779,22.75 C15.3396778,41.5045569 0.791736122,70.2146994 0.0382778578,100.9 C-0.551722142,123.25 5.69827786,142.08 17.4382779,159.22 C21.0837942,163.928512 25.3452255,168.126038 30.1082779,171.7 C41.3582779,180.21 57.8082779,188.08 71.4182779,192.7" id="Fill-6" fill="#FFFFFF"/>
            <path d="M205.518278,78.73 C199.258278,49.29 179.798278,28.68 153.768278,14.12 C173.718278,28.29 201.718278,58.42 185.168278,85 C171.168278,106.29 137.168278,102.12 118.518278,92 C96.3982779,80 68.7182779,53 96.0182779,26.61 C113.718278,9.53 170.018278,28.68 160.108278,54.21 C154.328278,69.06 131.828278,65.76 121.708278,58.5 C114.248278,53.14 107.968278,43.93 111.298278,34.42 C112.358278,31.37 112.208278,26.64 107.898278,30.12 C104.718278,32.72 103.068278,37 102.508278,41 C97.7982779,74.29 157.108278,100.1 174.708278,67.89 C183.838278,51.17 169.038278,26.89 150.408278,16.95 C136.408278,9.45 121.838278,4.18 103.978278,5.46 C75.4182779,7.46 51.4582779,25.36 48.4482779,54.54 C45.4482779,83.54 64.8382779,109.64 87.6682779,125.25 C111.668278,141.65 143.928278,152.46 173.448278,142.68 C199.908278,133.91 210.838278,103.54 205.518278,78.75" id="Fill-8" fill="#FFFFFF"/>
            <path d="M168.278278,56.18 C171.118278,37.1 153.868278,24 137.938278,18.05 C119.158278,11.05 94.3482779,14.11 80.6682779,29.66 C70.6682779,41.08 71.3182779,57.66 76.4782779,71.08 C84.2782779,91.35 101.888278,106 122.388278,112.33 C136.958278,116.83 154.568278,118.79 169.328278,114.04 C190.858278,107.11 197.868278,84.66 193.418278,64.09 C192.465515,59.6431682 191.002494,55.3212155 189.058278,51.21 C186.338278,45.5 178.008278,33.94 189.488278,48.02 C190.691638,49.5891613 191.800276,51.2287428 192.808278,52.93 C195.176426,56.8202226 197.054029,60.9885685 198.398278,65.34 C204.658278,84.54 199.748278,106.94 182.398278,118.53 C169.088278,127.4 152.168278,128.46 136.728278,126.24 C116.028278,123.24 96.5182779,113.24 82.9582779,97.15 C70.5782779,82.48 62.1282779,61.41 67.2182779,42.15 C70.9482779,28.06 82.3882779,17.54 96.0882779,13.15 C113.418278,7.54 132.498278,10.15 148.088278,19.26 C155.908278,23.81 163.088278,30.11 167.088278,38.37 C168.89746,42.0910488 169.870225,46.1630067 169.938278,50.3 C169.978048,51.9755764 169.847377,53.6508555 169.548278,55.3 C169.438278,55.9 168.168278,57.59 168.348278,56.2" id="Fill-10" fill="#3FE0C5"/>
        </g>
    </g>
</svg>

<svg xmlns="http://www.w3.org/2000/svg" viewBox="0 0 206.83 204.29">
    <defs>
        <style>.cls-1{fill:#5e464d;}.cls-2{fill:#fff;}.cls-3{fill:#3fe0c5;}</style>
    </defs>
    <title>truffle-logomark</title>
    <g id="Layer_2">
        <g id="Layer_8">
            <ellipse class="cls-1" cx="103.17" cy="102.14" rx="100.96" ry="102.14"/>
            <path id="Fill-6" class="cls-2"
                  d="M71.42,192.71c4.13,1.41,18,5.92,18.59,1.51.32-2.42-7-4.9-16.91-10.15a159,159,0,0,1-38.25-28.26A87.82,87.82,0,0,1,8.53,94.75c-.84-30.9,11.24-55.88,31.11-72A101.88,101.88,0,0,0,0,100.9c-.59,22.35,5.66,41.18,17.4,58.32A66.24,66.24,0,0,0,30.12,171.7c11.24,8.51,27.69,16.38,41.3,21"/>
            <path id="Fill-8" class="cls-2"
                  d="M205.52,78.73c-6.26-29.44-25.72-50.05-51.75-64.61,19.9,14.17,47.92,44.3,31.41,70.86-14,21.29-48.05,17.12-66.66,7C96.4,80,68.69,53,96,26.61c17.7-17.08,74,2.07,64.09,27.6-5.78,14.85-28.27,11.55-38.4,4.29C114.25,53.14,108,43.93,111.3,34.42c1.06-3.05.91-7.78-3.4-4.3-3.21,2.6-4.82,6.88-5.39,10.86-4.71,33.29,54.6,59.1,72.2,26.89,9.13-16.72-5.67-41-24.3-50.94-14-7.5-28.57-12.77-46.43-11.49-28.55,2-52.52,19.9-55.53,49.08-3,29,16.39,55.1,39.22,70.71,24,16.4,56.26,27.21,85.78,17.43,26.47-8.77,37.4-39.14,32.07-63.93"/>
            <path id="Fill-10" class="cls-3"
                  d="M168.28,56.18C171.12,37.1,153.87,24,137.94,18.05c-18.78-7-43.59-3.94-57.26,11.61-10,11.42-9.36,28-4.2,41.42,7.8,20.27,25.41,34.92,45.91,41.25,14.57,4.5,32.18,6.46,46.94,1.71,21.53-6.93,28.54-29.38,24.09-49.95a59.08,59.08,0,0,0-4.36-12.88C186.34,45.5,178,33.94,189.5,48a51.42,51.42,0,0,1,3.31,4.91,54.76,54.76,0,0,1,5.59,12.41c6.26,19.2,1.35,41.6-16,53.19-13.31,8.87-30.23,9.93-45.67,7.71-20.7-3-40.21-13-53.76-29.09-12.39-14.67-20.84-35.74-15.75-55,3.73-14.09,15.17-24.61,28.87-29,17.33-5.61,36.41-3,52,6.11,7.81,4.55,15,10.85,18.94,19.11a28.35,28.35,0,0,1,2.85,11.93,24.73,24.73,0,0,1-.39,5c-.11.6-1.38,2.29-1.2.9"/>
        </g>
    </g>
</svg>
